; ═══════════════════════════════════════════════
; Generated by RustSlicer
; Profile: Enhanced PLA Profile
; Material: PLA
; Layer height: 0.20mm
; Infill: 20% gyroid
; Perimeters: 3
; ═══════════════════════════════════════════════

; Start G-code
G28 ; Home all axes
G1 Z15.0 F6000 ; Move platform down
G92 E0 ; Reset extruder
G1 F200 E3 ; Extrude a short distance
G92 E0 ; Reset extruder again
M117 Printing... ; Display message

; Initialize printer
M82 ; Absolute extrusion mode
M104 S210 ; Set hotend temperature
M140 S60 ; Set bed temperature
M109 S210 ; Wait for hotend
M190 S60 ; Wait for bed
G92 E0 ; Reset extruder
G90 ; Absolute positioning

; Layer 0 at Z=0.300
G0 Z0.300 ; Move to layer height
; Island 0
G0 X10.000 Y-10.000 ; Move to perimeter start
G1 X-9.700 Y-10.000 ; Perimeter
G1 X-10.000 Y-10.000 ; Perimeter
G1 X-10.000 Y-9.700 ; Perimeter
G1 X-10.000 Y10.000 ; Perimeter
G1 X-9.700 Y10.000 ; Perimeter
G1 X10.000 Y10.000 ; Perimeter
G1 X10.000 Y-9.700 ; Perimeter
G1 X10.000 Y-10.000 ; Perimeter
G1 X10.000 Y-10.000 ; Close perimeter
; Layer 1 at Z=0.300
G0 Z0.300 ; Move to layer height
; Island 0
G0 X10.000 Y-10.000 ; Move to perimeter start
G1 X-9.700 Y-10.000 ; Perimeter
G1 X-10.000 Y-10.000 ; Perimeter
G1 X-10.000 Y-9.700 ; Perimeter
G1 X-10.000 Y10.000 ; Perimeter
G1 X-9.700 Y10.000 ; Perimeter
G1 X10.000 Y10.000 ; Perimeter
G1 X10.000 Y-9.700 ; Perimeter
G1 X10.000 Y-10.000 ; Perimeter
G1 X10.000 Y-10.000 ; Close perimeter
; Layer 2 at Z=0.500
G0 Z0.500 ; Move to layer height
; Island 0
G0 X10.000 Y-10.000 ; Move to perimeter start
G1 X-9.500 Y-10.000 ; Perimeter
G1 X-10.000 Y-10.000 ; Perimeter
G1 X-10.000 Y-9.500 ; Perimeter
G1 X-10.000 Y10.000 ; Perimeter
G1 X-9.500 Y10.000 ; Perimeter
G1 X10.000 Y10.000 ; Perimeter
G1 X10.000 Y-9.500 ; Perimeter
G1 X10.000 Y-10.000 ; Perimeter
G1 X10.000 Y-10.000 ; Close perimeter
; Layer 3 at Z=0.700
G0 Z0.700 ; Move to layer height
; Island 0
G0 X10.000 Y-10.000 ; Move to perimeter start
G1 X-9.300 Y-10.000 ; Perimeter
G1 X-10.000 Y-10.000 ; Perimeter
G1 X-10.000 Y-9.300 ; Perimeter
G1 X-10.000 Y10.000 ; Perimeter
G1 X-9.300 Y10.000 ; Perimeter
G1 X10.000 Y10.000 ; Perimeter
G1 X10.000 Y-9.300 ; Perimeter
G1 X10.000 Y-10.000 ; Perimeter
G1 X10.000 Y-10.000 ; Close perimeter
; Layer 4 at Z=0.900
G0 Z0.900 ; Move to layer height
; Island 0
G0 X10.000 Y-10.000 ; Move to perimeter start
G1 X-9.100 Y-10.000 ; Perimeter
G1 X-10.000 Y-10.000 ; Perimeter
G1 X-10.000 Y-9.100 ; Perimeter
G1 X-10.000 Y10.000 ; Perimeter
G1 X-9.100 Y10.000 ; Perimeter
G1 X10.000 Y10.000 ; Perimeter
G1 X10.000 Y-9.100 ; Perimeter
G1 X10.000 Y-10.000 ; Perimeter
G1 X10.000 Y-10.000 ; Close perimeter
; Layer 5 at Z=1.100
G0 Z1.100 ; Move to layer height
; Island 0
G0 X10.000 Y-10.000 ; Move to perimeter start
G1 X-8.900 Y-10.000 ; Perimeter
G1 X-10.000 Y-10.000 ; Perimeter
G1 X-10.000 Y-8.900 ; Perimeter
G1 X-10.000 Y10.000 ; Perimeter
G1 X-8.900 Y10.000 ; Perimeter
G1 X10.000 Y10.000 ; Perimeter
G1 X10.000 Y-8.900 ; Perimeter
G1 X10.000 Y-10.000 ; Perimeter
G1 X10.000 Y-10.000 ; Close perimeter
; Layer 6 at Z=1.300
G0 Z1.300 ; Move to layer height
; Island 0
G0 X10.000 Y-10.000 ; Move to perimeter start
G1 X-8.700 Y-10.000 ; Perimeter
G1 X-10.000 Y-10.000 ; Perimeter
G1 X-10.000 Y-8.700 ; Perimeter
G1 X-10.000 Y10.000 ; Perimeter
G1 X-8.700 Y10.000 ; Perimeter
G1 X10.000 Y10.000 ; Perimeter
G1 X10.000 Y-8.700 ; Perimeter
G1 X10.000 Y-10.000 ; Perimeter
G1 X10.000 Y-10.000 ; Close perimeter
; Layer 7 at Z=1.500
G0 Z1.500 ; Move to layer height
; Island 0
G0 X10.000 Y-10.000 ; Move to perimeter start
G1 X-8.500 Y-10.000 ; Perimeter
G1 X-10.000 Y-10.000 ; Perimeter
G1 X-10.000 Y-8.500 ; Perimeter
G1 X-10.000 Y10.000 ; Perimeter
G1 X-8.500 Y10.000 ; Perimeter
G1 X10.000 Y10.000 ; Perimeter
G1 X10.000 Y-8.500 ; Perimeter
G1 X10.000 Y-10.000 ; Perimeter
G1 X10.000 Y-10.000 ; Close perimeter
; Layer 8 at Z=1.700
G0 Z1.700 ; Move to layer height
; Island 0
G0 X10.000 Y-10.000 ; Move to perimeter start
G1 X-8.300 Y-10.000 ; Perimeter
G1 X-10.000 Y-10.000 ; Perimeter
G1 X-10.000 Y-8.300 ; Perimeter
G1 X-10.000 Y10.000 ; Perimeter
G1 X-8.300 Y10.000 ; Perimeter
G1 X10.000 Y10.000 ; Perimeter
G1 X10.000 Y-8.300 ; Perimeter
G1 X10.000 Y-10.000 ; Perimeter
G1 X10.000 Y-10.000 ; Close perimeter
; Layer 9 at Z=1.900
G0 Z1.900 ; Move to layer height
; Island 0
G0 X10.000 Y-10.000 ; Move to perimeter start
G1 X-8.100 Y-10.000 ; Perimeter
G1 X-10.000 Y-10.000 ; Perimeter
G1 X-10.000 Y-8.100 ; Perimeter
G1 X-10.000 Y10.000 ; Perimeter
G1 X-8.100 Y10.000 ; Perimeter
G1 X10.000 Y10.000 ; Perimeter
G1 X10.000 Y-8.100 ; Perimeter
G1 X10.000 Y-10.000 ; Perimeter
G1 X10.000 Y-10.000 ; Close perimeter
; Layer 10 at Z=2.100
G0 Z2.100 ; Move to layer height
; Island 0
G0 X10.000 Y-10.000 ; Move to perimeter start
G1 X-7.900 Y-10.000 ; Perimeter
G1 X-10.000 Y-10.000 ; Perimeter
G1 X-10.000 Y-7.900 ; Perimeter
G1 X-10.000 Y10.000 ; Perimeter
G1 X-7.900 Y10.000 ; Perimeter
G1 X10.000 Y10.000 ; Perimeter
G1 X10.000 Y-7.900 ; Perimeter
G1 X10.000 Y-10.000 ; Perimeter
G1 X10.000 Y-10.000 ; Close perimeter
; Layer 11 at Z=2.300
G0 Z2.300 ; Move to layer height
; Island 0
G0 X10.000 Y-10.000 ; Move to perimeter start
G1 X-7.700 Y-10.000 ; Perimeter
G1 X-10.000 Y-10.000 ; Perimeter
G1 X-10.000 Y-7.700 ; Perimeter
G1 X-10.000 Y10.000 ; Perimeter
G1 X-7.700 Y10.000 ; Perimeter
G1 X10.000 Y10.000 ; Perimeter
G1 X10.000 Y-7.700 ; Perimeter
G1 X10.000 Y-10.000 ; Perimeter
G1 X10.000 Y-10.000 ; Close perimeter
; Layer 12 at Z=2.500
G0 Z2.500 ; Move to layer height
; Island 0
G0 X10.000 Y-10.000 ; Move to perimeter start
G1 X-7.500 Y-10.000 ; Perimeter
G1 X-10.000 Y-10.000 ; Perimeter
G1 X-10.000 Y-7.500 ; Perimeter
G1 X-10.000 Y10.000 ; Perimeter
G1 X-7.500 Y10.000 ; Perimeter
G1 X10.000 Y10.000 ; Perimeter
G1 X10.000 Y-7.500 ; Perimeter
G1 X10.000 Y-10.000 ; Perimeter
G1 X10.000 Y-10.000 ; Close perimeter
; Layer 13 at Z=2.700
G0 Z2.700 ; Move to layer height
; Island 0
G0 X10.000 Y-10.000 ; Move to perimeter start
G1 X-7.300 Y-10.000 ; Perimeter
G1 X-10.000 Y-10.000 ; Perimeter
G1 X-10.000 Y-7.300 ; Perimeter
G1 X-10.000 Y10.000 ; Perimeter
G1 X-7.300 Y10.000 ; Perimeter
G1 X10.000 Y10.000 ; Perimeter
G1 X10.000 Y-7.300 ; Perimeter
G1 X10.000 Y-10.000 ; Perimeter
G1 X10.000 Y-10.000 ; Close perimeter
; Layer 14 at Z=2.900
G0 Z2.900 ; Move to layer height
; Island 0
G0 X10.000 Y-10.000 ; Move to perimeter start
G1 X-7.100 Y-10.000 ; Perimeter
G1 X-10.000 Y-10.000 ; Perimeter
G1 X-10.000 Y-7.100 ; Perimeter
G1 X-10.000 Y10.000 ; Perimeter
G1 X-7.100 Y10.000 ; Perimeter
G1 X10.000 Y10.000 ; Perimeter
G1 X10.000 Y-7.100 ; Perimeter
G1 X10.000 Y-10.000 ; Perimeter
G1 X10.000 Y-10.000 ; Close perimeter
; Layer 15 at Z=3.100
G0 Z3.100 ; Move to layer height
; Island 0
G0 X10.000 Y-10.000 ; Move to perimeter start
G1 X-6.900 Y-10.000 ; Perimeter
G1 X-10.000 Y-10.000 ; Perimeter
G1 X-10.000 Y-6.900 ; Perimeter
G1 X-10.000 Y10.000 ; Perimeter
G1 X-6.900 Y10.000 ; Perimeter
G1 X10.000 Y10.000 ; Perimeter
G1 X10.000 Y-6.900 ; Perimeter
G1 X10.000 Y-10.000 ; Perimeter
G1 X10.000 Y-10.000 ; Close perimeter
; Layer 16 at Z=3.300
G0 Z3.300 ; Move to layer height
; Island 0
G0 X10.000 Y-10.000 ; Move to perimeter start
G1 X-6.700 Y-10.000 ; Perimeter
G1 X-10.000 Y-10.000 ; Perimeter
G1 X-10.000 Y-6.700 ; Perimeter
G1 X-10.000 Y10.000 ; Perimeter
G1 X-6.700 Y10.000 ; Perimeter
G1 X10.000 Y10.000 ; Perimeter
G1 X10.000 Y-6.700 ; Perimeter
G1 X10.000 Y-10.000 ; Perimeter
G1 X10.000 Y-10.000 ; Close perimeter
; Layer 17 at Z=3.500
G0 Z3.500 ; Move to layer height
; Island 0
G0 X10.000 Y-10.000 ; Move to perimeter start
G1 X-6.500 Y-10.000 ; Perimeter
G1 X-10.000 Y-10.000 ; Perimeter
G1 X-10.000 Y-6.500 ; Perimeter
G1 X-10.000 Y10.000 ; Perimeter
G1 X-6.500 Y10.000 ; Perimeter
G1 X10.000 Y10.000 ; Perimeter
G1 X10.000 Y-6.500 ; Perimeter
G1 X10.000 Y-10.000 ; Perimeter
G1 X10.000 Y-10.000 ; Close perimeter
; Layer 18 at Z=3.700
G0 Z3.700 ; Move to layer height
; Island 0
G0 X10.000 Y-10.000 ; Move to perimeter start
G1 X-6.300 Y-10.000 ; Perimeter
G1 X-10.000 Y-10.000 ; Perimeter
G1 X-10.000 Y-6.300 ; Perimeter
G1 X-10.000 Y10.000 ; Perimeter
G1 X-6.300 Y10.000 ; Perimeter
G1 X10.000 Y10.000 ; Perimeter
G1 X10.000 Y-6.300 ; Perimeter
G1 X10.000 Y-10.000 ; Perimeter
G1 X10.000 Y-10.000 ; Close perimeter
; Layer 19 at Z=3.900
G0 Z3.900 ; Move to layer height
; Island 0
G0 X10.000 Y-10.000 ; Move to perimeter start
G1 X-6.100 Y-10.000 ; Perimeter
G1 X-10.000 Y-10.000 ; Perimeter
G1 X-10.000 Y-6.100 ; Perimeter
G1 X-10.000 Y10.000 ; Perimeter
G1 X-6.100 Y10.000 ; Perimeter
G1 X10.000 Y10.000 ; Perimeter
G1 X10.000 Y-6.100 ; Perimeter
G1 X10.000 Y-10.000 ; Perimeter
G1 X10.000 Y-10.000 ; Close perimeter
; Layer 20 at Z=4.100
G0 Z4.100 ; Move to layer height
; Island 0
G0 X10.000 Y-10.000 ; Move to perimeter start
G1 X-5.900 Y-10.000 ; Perimeter
G1 X-10.000 Y-10.000 ; Perimeter
G1 X-10.000 Y-5.900 ; Perimeter
G1 X-10.000 Y10.000 ; Perimeter
G1 X-5.900 Y10.000 ; Perimeter
G1 X10.000 Y10.000 ; Perimeter
G1 X10.000 Y-5.900 ; Perimeter
G1 X10.000 Y-10.000 ; Perimeter
G1 X10.000 Y-10.000 ; Close perimeter
; Layer 21 at Z=4.300
G0 Z4.300 ; Move to layer height
; Island 0
G0 X10.000 Y-10.000 ; Move to perimeter start
G1 X-5.700 Y-10.000 ; Perimeter
G1 X-10.000 Y-10.000 ; Perimeter
G1 X-10.000 Y-5.700 ; Perimeter
G1 X-10.000 Y10.000 ; Perimeter
G1 X-5.700 Y10.000 ; Perimeter
G1 X10.000 Y10.000 ; Perimeter
G1 X10.000 Y-5.700 ; Perimeter
G1 X10.000 Y-10.000 ; Perimeter
G1 X10.000 Y-10.000 ; Close perimeter
; Layer 22 at Z=4.500
G0 Z4.500 ; Move to layer height
; Island 0
G0 X10.000 Y-10.000 ; Move to perimeter start
G1 X-5.500 Y-10.000 ; Perimeter
G1 X-10.000 Y-10.000 ; Perimeter
G1 X-10.000 Y-5.500 ; Perimeter
G1 X-10.000 Y10.000 ; Perimeter
G1 X-5.500 Y10.000 ; Perimeter
G1 X10.000 Y10.000 ; Perimeter
G1 X10.000 Y-5.500 ; Perimeter
G1 X10.000 Y-10.000 ; Perimeter
G1 X10.000 Y-10.000 ; Close perimeter
; Layer 23 at Z=4.700
G0 Z4.700 ; Move to layer height
; Island 0
G0 X10.000 Y-10.000 ; Move to perimeter start
G1 X-5.300 Y-10.000 ; Perimeter
G1 X-10.000 Y-10.000 ; Perimeter
G1 X-10.000 Y-5.300 ; Perimeter
G1 X-10.000 Y10.000 ; Perimeter
G1 X-5.300 Y10.000 ; Perimeter
G1 X10.000 Y10.000 ; Perimeter
G1 X10.000 Y-5.300 ; Perimeter
G1 X10.000 Y-10.000 ; Perimeter
G1 X10.000 Y-10.000 ; Close perimeter
; Layer 24 at Z=4.900
G0 Z4.900 ; Move to layer height
; Island 0
G0 X10.000 Y-10.000 ; Move to perimeter start
G1 X-5.100 Y-10.000 ; Perimeter
G1 X-10.000 Y-10.000 ; Perimeter
G1 X-10.000 Y-5.100 ; Perimeter
G1 X-10.000 Y10.000 ; Perimeter
G1 X-5.100 Y10.000 ; Perimeter
G1 X10.000 Y10.000 ; Perimeter
G1 X10.000 Y-5.100 ; Perimeter
G1 X10.000 Y-10.000 ; Perimeter
G1 X10.000 Y-10.000 ; Close perimeter
; Layer 25 at Z=5.100
G0 Z5.100 ; Move to layer height
; Island 0
G0 X10.000 Y-10.000 ; Move to perimeter start
G1 X-4.900 Y-10.000 ; Perimeter
G1 X-10.000 Y-10.000 ; Perimeter
G1 X-10.000 Y-4.900 ; Perimeter
G1 X-10.000 Y10.000 ; Perimeter
G1 X-4.900 Y10.000 ; Perimeter
G1 X10.000 Y10.000 ; Perimeter
G1 X10.000 Y-4.900 ; Perimeter
G1 X10.000 Y-10.000 ; Perimeter
G1 X10.000 Y-10.000 ; Close perimeter
; Layer 26 at Z=5.300
G0 Z5.300 ; Move to layer height
; Island 0
G0 X10.000 Y-10.000 ; Move to perimeter start
G1 X-4.700 Y-10.000 ; Perimeter
G1 X-10.000 Y-10.000 ; Perimeter
G1 X-10.000 Y-4.700 ; Perimeter
G1 X-10.000 Y10.000 ; Perimeter
G1 X-4.700 Y10.000 ; Perimeter
G1 X10.000 Y10.000 ; Perimeter
G1 X10.000 Y-4.700 ; Perimeter
G1 X10.000 Y-10.000 ; Perimeter
G1 X10.000 Y-10.000 ; Close perimeter
; Layer 27 at Z=5.500
G0 Z5.500 ; Move to layer height
; Island 0
G0 X10.000 Y-10.000 ; Move to perimeter start
G1 X-4.500 Y-10.000 ; Perimeter
G1 X-10.000 Y-10.000 ; Perimeter
G1 X-10.000 Y-4.500 ; Perimeter
G1 X-10.000 Y10.000 ; Perimeter
G1 X-4.500 Y10.000 ; Perimeter
G1 X10.000 Y10.000 ; Perimeter
G1 X10.000 Y-4.500 ; Perimeter
G1 X10.000 Y-10.000 ; Perimeter
G1 X10.000 Y-10.000 ; Close perimeter
; Layer 28 at Z=5.700
G0 Z5.700 ; Move to layer height
; Island 0
G0 X10.000 Y-10.000 ; Move to perimeter start
G1 X-4.300 Y-10.000 ; Perimeter
G1 X-10.000 Y-10.000 ; Perimeter
G1 X-10.000 Y-4.300 ; Perimeter
G1 X-10.000 Y10.000 ; Perimeter
G1 X-4.300 Y10.000 ; Perimeter
G1 X10.000 Y10.000 ; Perimeter
G1 X10.000 Y-4.300 ; Perimeter
G1 X10.000 Y-10.000 ; Perimeter
G1 X10.000 Y-10.000 ; Close perimeter
; Layer 29 at Z=5.900
G0 Z5.900 ; Move to layer height
; Island 0
G0 X10.000 Y-10.000 ; Move to perimeter start
G1 X-4.100 Y-10.000 ; Perimeter
G1 X-10.000 Y-10.000 ; Perimeter
G1 X-10.000 Y-4.100 ; Perimeter
G1 X-10.000 Y10.000 ; Perimeter
G1 X-4.100 Y10.000 ; Perimeter
G1 X10.000 Y10.000 ; Perimeter
G1 X10.000 Y-4.100 ; Perimeter
G1 X10.000 Y-10.000 ; Perimeter
G1 X10.000 Y-10.000 ; Close perimeter
; Layer 30 at Z=6.100
G0 Z6.100 ; Move to layer height
; Island 0
G0 X10.000 Y-10.000 ; Move to perimeter start
G1 X-3.900 Y-10.000 ; Perimeter
G1 X-10.000 Y-10.000 ; Perimeter
G1 X-10.000 Y-3.900 ; Perimeter
G1 X-10.000 Y10.000 ; Perimeter
G1 X-3.900 Y10.000 ; Perimeter
G1 X10.000 Y10.000 ; Perimeter
G1 X10.000 Y-3.900 ; Perimeter
G1 X10.000 Y-10.000 ; Perimeter
G1 X10.000 Y-10.000 ; Close perimeter
; Layer 31 at Z=6.300
G0 Z6.300 ; Move to layer height
; Island 0
G0 X10.000 Y-10.000 ; Move to perimeter start
G1 X-3.700 Y-10.000 ; Perimeter
G1 X-10.000 Y-10.000 ; Perimeter
G1 X-10.000 Y-3.700 ; Perimeter
G1 X-10.000 Y10.000 ; Perimeter
G1 X-3.700 Y10.000 ; Perimeter
G1 X10.000 Y10.000 ; Perimeter
G1 X10.000 Y-3.700 ; Perimeter
G1 X10.000 Y-10.000 ; Perimeter
G1 X10.000 Y-10.000 ; Close perimeter
; Layer 32 at Z=6.500
G0 Z6.500 ; Move to layer height
; Island 0
G0 X10.000 Y-10.000 ; Move to perimeter start
G1 X-3.500 Y-10.000 ; Perimeter
G1 X-10.000 Y-10.000 ; Perimeter
G1 X-10.000 Y-3.500 ; Perimeter
G1 X-10.000 Y10.000 ; Perimeter
G1 X-3.500 Y10.000 ; Perimeter
G1 X10.000 Y10.000 ; Perimeter
G1 X10.000 Y-3.500 ; Perimeter
G1 X10.000 Y-10.000 ; Perimeter
G1 X10.000 Y-10.000 ; Close perimeter
; Layer 33 at Z=6.700
G0 Z6.700 ; Move to layer height
; Island 0
G0 X10.000 Y-10.000 ; Move to perimeter start
G1 X-3.300 Y-10.000 ; Perimeter
G1 X-10.000 Y-10.000 ; Perimeter
G1 X-10.000 Y-3.300 ; Perimeter
G1 X-10.000 Y10.000 ; Perimeter
G1 X-3.300 Y10.000 ; Perimeter
G1 X10.000 Y10.000 ; Perimeter
G1 X10.000 Y-3.300 ; Perimeter
G1 X10.000 Y-10.000 ; Perimeter
G1 X10.000 Y-10.000 ; Close perimeter
; Layer 34 at Z=6.900
G0 Z6.900 ; Move to layer height
; Island 0
G0 X10.000 Y-10.000 ; Move to perimeter start
G1 X-3.100 Y-10.000 ; Perimeter
G1 X-10.000 Y-10.000 ; Perimeter
G1 X-10.000 Y-3.100 ; Perimeter
G1 X-10.000 Y10.000 ; Perimeter
G1 X-3.100 Y10.000 ; Perimeter
G1 X10.000 Y10.000 ; Perimeter
G1 X10.000 Y-3.100 ; Perimeter
G1 X10.000 Y-10.000 ; Perimeter
G1 X10.000 Y-10.000 ; Close perimeter
; Layer 35 at Z=7.100
G0 Z7.100 ; Move to layer height
; Island 0
G0 X10.000 Y-10.000 ; Move to perimeter start
G1 X-2.900 Y-10.000 ; Perimeter
G1 X-10.000 Y-10.000 ; Perimeter
G1 X-10.000 Y-2.900 ; Perimeter
G1 X-10.000 Y10.000 ; Perimeter
G1 X-2.900 Y10.000 ; Perimeter
G1 X10.000 Y10.000 ; Perimeter
G1 X10.000 Y-2.900 ; Perimeter
G1 X10.000 Y-10.000 ; Perimeter
G1 X10.000 Y-10.000 ; Close perimeter
; Layer 36 at Z=7.300
G0 Z7.300 ; Move to layer height
; Island 0
G0 X10.000 Y-10.000 ; Move to perimeter start
G1 X-2.700 Y-10.000 ; Perimeter
G1 X-10.000 Y-10.000 ; Perimeter
G1 X-10.000 Y-2.700 ; Perimeter
G1 X-10.000 Y10.000 ; Perimeter
G1 X-2.700 Y10.000 ; Perimeter
G1 X10.000 Y10.000 ; Perimeter
G1 X10.000 Y-2.700 ; Perimeter
G1 X10.000 Y-10.000 ; Perimeter
G1 X10.000 Y-10.000 ; Close perimeter
; Layer 37 at Z=7.500
G0 Z7.500 ; Move to layer height
; Island 0
G0 X10.000 Y-10.000 ; Move to perimeter start
G1 X-2.500 Y-10.000 ; Perimeter
G1 X-10.000 Y-10.000 ; Perimeter
G1 X-10.000 Y-2.500 ; Perimeter
G1 X-10.000 Y10.000 ; Perimeter
G1 X-2.500 Y10.000 ; Perimeter
G1 X10.000 Y10.000 ; Perimeter
G1 X10.000 Y-2.500 ; Perimeter
G1 X10.000 Y-10.000 ; Perimeter
G1 X10.000 Y-10.000 ; Close perimeter
